components/icon/svg/24/maps_stop.svg

<?xml version="1.0" encoding="UTF-8"?>
<svg width="24px" height="24px" viewBox="0 0 24 24" version="1.1" xmlns="http://www.w3.org/2000/svg" xmlns:xlink="http://www.w3.org/1999/xlink">
    <!-- Generator: Sketch 64 (93537) - https://sketch.com -->
    <title>ic-db_maps_stop_24</title>
    <desc>Created with Sketch.</desc>
    <g id="Symbols" stroke="none" stroke-width="1" fill="none" fill-rule="evenodd">
        <g id="24dp-Icon/Maps/Stop" fill="#282D37">
            <path d="M16.8055619,2 C17.4898526,2 18.111935,2.21803279 18.5785466,2.6852459 L21.3467637,5.36393443 C21.8133753,5.8 22,6.39180328 22,6.98360656 C22,7.51311475 21.8133753,8.13606557 21.3467637,8.57213115 L18.5785466,11.2508197 C18.0808807,11.7491803 17.4898526,12 16.8055619,12 L12,12 L12,19 L15.0326767,19 C15.561397,19 15.9968548,19.4737705 15.9968548,19.9409836 C15.9968548,20.5639344 15.561397,21 15.0326767,21 L6.94560511,21 C6.41678528,21 6.01248146,20.5639344 6.01248146,19.9409836 C6.01248146,19.4737705 6.41678528,19 6.94560511,19 L9.99380904,19 L10,12 L4.58169187,12 C3.11974838,12 2,10.8770492 2,9.4442623 L2,4.52295082 C2,3.12131148 3.11974838,2 4.58169187,2 L16.8055619,2 Z M16.6500911,4 L4.95494133,4 C4.33285889,4 4.02181768,4.30491803 4.02181768,4.89672131 L4.02181768,9.0704918 C4.02181768,9.66229508 4.33285889,10.004918 4.95494133,10.004918 L16.6500911,10.004918 C17.147757,10.004918 17.4898526,9.88032787 17.8008938,9.53770492 L19.6671411,7.63770492 C19.8849197,7.41967213 20,7.20163934 20,6.95245902 C20,6.73442623 19.8849197,6.51639344 19.6671411,6.29836066 L17.8008938,4.46065574 C17.4587982,4.11803279 17.147757,4 16.6500911,4 Z" id="🎨-Color"></path>
        </g>
    </g>
</svg>

<svg width="24" height="24" xmlns="http://www.w3.org/2000/svg"><path d="M16.806 2c.684 0 1.306.218 1.773.685l2.768 2.679c.466.436.653 1.028.653 1.62 0 .53-.187 1.152-.653 1.588l-2.768 2.679c-.498.498-1.09.749-1.773.749H12v7h3.033c.528 0 .964.474.964.941 0 .623-.436 1.059-.964 1.059H6.946c-.53 0-.934-.436-.934-1.059 0-.467.405-.941.934-.941h3.048L10 12H4.582C3.12 12 2 10.877 2 9.444V4.523C2 3.121 3.12 2 4.582 2h12.224zm-.156 2H4.955c-.622 0-.933.305-.933.897V9.07c0 .592.31.935.933.935H16.65c.498 0 .84-.125 1.15-.467l1.867-1.9c.218-.218.333-.436.333-.686 0-.218-.115-.436-.333-.654l-1.866-1.837C17.459 4.118 17.148 4 16.65 4z" fill="#282D37" fill-rule="evenodd"/></svg>
